src/assets/svg/bus.svg

<svg width="37" height="36" viewBox="0 0 37 36" fill="none" xmlns="http://www.w3.org/2000/svg">
<path d="M22 1.65602V16.6142C22 18.4502 20.4783 19.9442 18.6083 19.9442H1.83333C0.825 19.9442 0 19.1342 0 18.1442V6.64208C0 2.97003 3.025 0 6.765 0H20.295C21.2483 0 22 0.738009 22 1.65602Z" fill="#141416"/>
<path d="M35.75 24.3006C36.2633 24.3006 36.6667 24.6966 36.6667 25.2006V27.0006C36.6667 29.9887 34.21 32.4007 31.1667 32.4007C31.1667 29.4307 28.6917 27.0006 25.6667 27.0006C22.6417 27.0006 20.1667 29.4307 20.1667 32.4007H16.5C16.5 29.4307 14.025 27.0006 11 27.0006C7.975 27.0006 5.5 29.4307 5.5 32.4007C2.45667 32.4007 0 29.9887 0 27.0006V23.4006C0 22.4106 0.825 21.6006 1.83333 21.6006H19.25C21.78 21.6006 23.8333 19.5846 23.8333 17.1005V7.20041C23.8333 6.2104 24.6583 5.40039 25.6667 5.40039H27.2067C28.5267 5.40039 29.7367 6.1024 30.3967 7.21841L31.57 9.23443C31.735 9.52244 31.515 9.90044 31.1667 9.90044C28.6367 9.90044 26.5833 11.9165 26.5833 14.4005V19.8006C26.5833 22.2846 28.6367 24.3006 31.1667 24.3006H35.75Z" fill="#141416"/>
<path d="M11.0007 36.0009C13.0257 36.0009 14.6673 34.3891 14.6673 32.4008C14.6673 30.4126 13.0257 28.8008 11.0007 28.8008C8.97561 28.8008 7.33398 30.4126 7.33398 32.4008C7.33398 34.3891 8.97561 36.0009 11.0007 36.0009Z" fill="#141416"/>
<path d="M25.6667 36.0009C27.6917 36.0009 29.3333 34.3891 29.3333 32.4008C29.3333 30.4126 27.6917 28.8008 25.6667 28.8008C23.6416 28.8008 22 30.4126 22 32.4008C22 34.3891 23.6416 36.0009 25.6667 36.0009Z" fill="#141416"/>
<path d="M36.6673 18.9537V21.5997H31.1673C30.159 21.5997 29.334 20.7897 29.334 19.7997V14.3996C29.334 13.4096 30.159 12.5996 31.1673 12.5996H33.5323L36.1907 17.1717C36.5023 17.7117 36.6673 18.3237 36.6673 18.9537Z" fill="#141416"/>
</svg>

<svg xmlns="http://www.w3.org/2000/svg" width="37" height="36" fill="none"><path fill="#141416" d="M22 1.656v14.958c0 1.836-1.522 3.33-3.392 3.33H1.833c-1.008 0-1.833-.81-1.833-1.8V6.642C0 2.97 3.025 0 6.765 0h13.53C21.248 0 22 .738 22 1.656"/><path fill="#141416" d="M35.75 24.3a.9.9 0 0 1 .917.9V27c0 2.989-2.457 5.4-5.5 5.4 0-2.97-2.475-5.4-5.5-5.4s-5.5 2.43-5.5 5.4H16.5c0-2.97-2.475-5.4-5.5-5.4s-5.5 2.43-5.5 5.4C2.457 32.4 0 29.99 0 27v-3.6c0-.99.825-1.8 1.833-1.8H19.25c2.53 0 4.583-2.015 4.583-4.5V7.2c0-.99.825-1.8 1.834-1.8h1.54c1.32 0 2.53.702 3.19 1.818l1.173 2.016c.165.288-.055.666-.403.666-2.53 0-4.584 2.016-4.584 4.5v5.4c0 2.485 2.054 4.5 4.584 4.5z"/><path fill="#141416" d="M11 36c2.026 0 3.667-1.61 3.667-3.6 0-1.987-1.641-3.6-3.666-3.6s-3.667 1.613-3.667 3.6c0 1.99 1.642 3.6 3.667 3.6m14.666 0c2.025 0 3.666-1.61 3.666-3.6 0-1.987-1.641-3.6-3.666-3.6S22 30.414 22 32.4c0 1.99 1.642 3.6 3.667 3.6m11-17.046V21.6h-5.5c-1.008 0-1.833-.81-1.833-1.8v-5.4c0-.99.825-1.8 1.833-1.8h2.365l2.659 4.572c.311.54.476 1.152.476 1.782"/></svg>
